build/img/icons/html.svg

<svg width="96" height="96" viewBox="0 0 96 96" fill="none" xmlns="http://www.w3.org/2000/svg">
<path d="M14 7H85V21.8966H30.2418L31.634 36.3276H82.9118L78.9673 79.8534L50.1961 88L20.2647 79.8534L19.1046 57.5086H33.2582L34.1863 68.4483L50.1961 72.8707L65.5098 68.4483L66.902 50.0603H17.9444L14 7Z" fill="#FFFDF8"/>
</svg>

<svg width="96" height="96" fill="none" xmlns="http://www.w3.org/2000/svg"><path d="M14 7h71v14.897H30.242l1.392 14.43h51.278l-3.945 43.526L50.197 88l-29.932-8.147-1.16-22.344h14.153l.928 10.94 16.01 4.422 15.314-4.423 1.392-18.388H17.944L14 7z" fill="#FFFDF8"/></svg>
